material/.icons/material/boom-gate-alert.svg

<svg xmlns="http://www.w3.org/2000/svg" viewBox="0 0 24 24"><path d="M19.86 3a1.995 1.995 0 00-2.74-.73L6.92 8.16C6.62 8.06 6.31 8 6 8a3 3 0 00-3 3v9a1 1 0 00-1 1v1h8v-1a1 1 0 00-1-1v-8.42l10.12-5.85c.96-.55 1.29-1.77.74-2.73M6 12.5A1.5 1.5 0 014.5 11 1.5 1.5 0 016 9.5 1.5 1.5 0 017.5 11 1.5 1.5 0 016 12.5m4.4-2.88l-2.3-1 1.3-.75 2.3 1-1.3.75m3.46-2l-2.3-1 1.3-.75 2.3 1-1.3.75m3.47-2l-2.3-1 1.3-.75 2.29 1-1.29.75M20 18h-2v2h2v-2m0-7h-2v5h2v-5z"/></svg>

<?xml version="1.0" encoding="UTF-8"?><!DOCTYPE svg PUBLIC "-//W3C//DTD SVG 1.1//EN" "http://www.w3.org/Graphics/SVG/1.1/DTD/svg11.dtd"><svg xmlns="http://www.w3.org/2000/svg" xmlns:xlink="http://www.w3.org/1999/xlink" version="1.1" id="mdi-boom-gate-alert" width="24" height="24" viewBox="0 0 24 24"><path d="M19.86,3C19.31,2.04 18.09,1.71 17.12,2.27L6.92,8.16C6.62,8.06 6.31,8 6,8A3,3 0 0,0 3,11V20A1,1 0 0,0 2,21V22H10V21A1,1 0 0,0 9,20V11.58L19.12,5.73C20.08,5.18 20.41,3.96 19.86,3M6,12.5A1.5,1.5 0 0,1 4.5,11A1.5,1.5 0 0,1 6,9.5A1.5,1.5 0 0,1 7.5,11A1.5,1.5 0 0,1 6,12.5M10.4,9.62L8.1,8.62L9.4,7.87L11.7,8.87L10.4,9.62M13.86,7.62L11.56,6.62L12.86,5.87L15.16,6.87L13.86,7.62M17.33,5.62L15.03,4.62L16.33,3.87L18.62,4.87L17.33,5.62M20,18H18V20H20V18M20,11H18V16H20V11Z" /></svg>
